common/svg/home-icon.svg

<svg fill="none" height="20" viewBox="0 0 20 20" width="20" xmlns="http://www.w3.org/2000/svg"><path d="m1.66667 6.75926v11.57404h5.55556v-5.3633c0-.6678.42728-1.2606 1.06076-1.4717 1.11453-.3715 2.31951-.3715 3.43401 0 .6335.2111 1.0608.8039 1.0608 1.4717v5.3633h5.5555v-11.57404l-8.3333-5.0926z" stroke="#000" stroke-width="1.85185"/></svg>

<svg width="20" height="20" viewBox="0 0 20 20" fill="none" xmlns="http://www.w3.org/2000/svg">
<path d="M1.66667 6.75926V18.3333H7.22223V12.97C7.22223 12.3022 7.64951 11.7094 8.28299 11.4983C9.39752 11.1268 10.6025 11.1268 11.717 11.4983C12.3505 11.7094 12.7778 12.3022 12.7778 12.97V18.3333H18.3333V6.75926L10 1.66666L1.66667 6.75926Z" stroke="black" stroke-width="1.85185"/>
</svg>
